X:1
T:Title
%%score { ( 1 4 ) | ( 2 3 ) }
L:1/8
Q:1/4=100
M:4/4
K:Eb
V:1 treble nm="Grand Piano"
V:4 treble 
V:2 bass 
V:3 bass 
V:1
 G2 GF E3 [GB] | [GB][FA][FA]G [B,EG]2 [A,DF]2 | [G,E]2 [G,E][G,E] [CF]2 [CF]2 | [=B,DG]6 z2 | %4
w: J.~J.~Jelley * * * *||||
 G2 GF E3 [GB] | [GB][FA][FA]G [B,EG]2 [B,DF]2 | [B,EB]2 [CEA][CEA] [B,EG]2 [A,DF]2 | E6 z2 | %8
w: ||||
 G2 GF E4 | [DF]2 [DF][EG] [FA][EG] [DF]2 | z4 z2 F2 | [B,DF]6 z2 | G2 GA B3 [GB] | %13
w: |||||
 [GB][FA][FA][EG] [EG]2 [B,DF]2 | %14
w: |
 [B,EB]2 [CEA][CEA] [B,EG]2 [A,DF]2[Q:1/4=99][Q:1/4=97][Q:1/4=96][Q:1/4=94][Q:1/4=93][Q:1/4=91][Q:1/4=90][Q:1/4=88][Q:1/4=87][Q:1/4=85][Q:1/4=84][Q:1/4=82][Q:1/4=81][Q:1/4=79][Q:1/4=78][Q:1/4=76] | %15
w: |
 [G,E]6 z2 |] %16
w: |
V:2
 [E,B,E]2 [E,B,E][E,A,B,] [E,G,B,]3 [E,B,] | [B,,B,]2 z E B,,2 B,,2 | C,2 C,C, A,,2 A,,2 | %3
 G,,6 z2 | [E,B,E]2 [E,B,E][E,A,B,] [E,G,B,]3 [E,B,] | z2 [B,,B,]2 z4 | G,,2 A,,A,, B,,2 B,,2 | %7
 [E,G,]6 z2 | [E,B,E]2 [E,B,E][E,A,E] [E,G,]4 | [B,,B,]2 [B,,B,][B,,B,] [B,,A,]2 [B,,A,]2 | %10
 [C,G,]2 [C,G,][C,C] [D,B,][E,E][B,D]=A, | B,,6 z2 | [E,B,E]2 [E,B,E][F,B,D] [G,B,E]3 [E,B,] | %13
 [B,,B,]2 [B,,B,][B,,B,] [B,,B,]2 A,,2 | G,,2 A,,A,, B,,2 B,,2 | E,6 z2 |] %16
V:3
 x8 | z2 [B,,B,]2 z4 | x8 | x8 | x8 | [B,,B,]2 z E B,,2 A,,2 | x8 | x8 | x8 | x8 | z4 z2 F,2 | x8 | %12
 x8 | x8 | x8 | x8 |] %16
V:4
 x8 | x8 | x8 | x8 | x8 | x8 | x8 | x8 | x8 | x8 | E2 EE FG z C | x8 | x8 | x8 | x8 | x8 |] %16

